icons/book-24.svg

<svg width="24" height="24" viewBox="0 0 24 24" fill="none" xmlns="http://www.w3.org/2000/svg">
<path fill-rule="evenodd" clip-rule="evenodd" d="M0 3.75C0 3.33579 0.335786 3 0.75 3H8.24687C9.81303 3 11.1924 3.80012 11.9984 5.01401C12.8044 3.80017 14.1838 3 15.75 3H23.25C23.6642 3 24 3.33579 24 3.75V18.8125C24 19.0123 23.9203 19.2039 23.7785 19.3447C23.6368 19.4855 23.4447 19.5639 23.2449 19.5625L15.5631 19.5106C14.7604 19.5052 13.989 19.8216 13.4215 20.3892L12.5303 21.2803C12.2374 21.5732 11.7626 21.5732 11.4697 21.2803L10.568 20.3787C10.0054 19.8161 9.24235 19.5 8.4467 19.5H0.75C0.335786 19.5 0 19.1642 0 18.75V3.75ZM11.2469 7.4975C11.2455 5.84162 9.90275 4.5 8.24687 4.5H1.5V18H8.4467C9.46997 18 10.4573 18.3485 11.25 18.9798L11.2469 7.4975ZM12.75 18.982V7.5C12.75 5.84315 14.0931 4.5 15.75 4.5H22.5V18.0575L15.5732 18.0106C14.5439 18.0037 13.549 18.3496 12.75 18.982Z" fill="#24292E"/>
</svg>

<svg xmlns="http://www.w3.org/2000/svg" width="24" height="24" viewBox="0 0 24 24"><path fill-rule="evenodd" d="M0 3.75A.75.75 0 01.75 3h7.497c1.566 0 2.945.8 3.751 2.014A4.496 4.496 0 0115.75 3h7.5a.75.75 0 01.75.75v15.063a.75.75 0 01-.755.75l-7.682-.052a3 3 0 00-2.142.878l-.89.891a.75.75 0 01-1.061 0l-.902-.901a3 3 0 00-2.121-.879H.75a.75.75 0 01-.75-.75v-15zm11.247 3.747a3 3 0 00-3-2.997H1.5V18h6.947a4.5 4.5 0 012.803.98l-.003-11.483zm1.503 11.485V7.5a3 3 0 013-3h6.75v13.558l-6.927-.047a4.5 4.5 0 00-2.823.971z"/></svg>
